!!!COM: Palestrina, Giovanni Perluigi da
!!!OPR: Tu es pastor ovium
!!!OTL: Sanctus
**kern	**kern	**kern	**kern	**kern
*Ibass	*Itenor	*Itenor	*Icalto	*Icant
!Bassus	!Tenor 2	!Tenor 1	!Altus	!Cantus
*clefF4	*clefGv2	*clefGv2	*clefG2	*clefG2
*k[b-]	*k[b-]	*k[b-]	*k[b-]	*k[b-]
*G:dor	*G:dor	*G:dor	*G:dor	*G:dor
*M4/2	*M4/2	*M4/2	*M4/2	*M4/2
=1	=1	=1	=1	=1
0r	0r	0r	1g	0r
.	.	.	1g	.
=2	=2	=2	=2	=2
0r	0r	0r	1f	1r
.	.	.	[1b-	1g
=3	=3	=3	=3	=3
0r	0r	0r	2b-]	1g
.	.	.	4a	.
.	.	.	4g	.
.	.	.	1a	1f
=4	=4	=4	=4	=4
0r	1G	0r	2.g	2.b-
.	.	.	4f	4a
.	1G	.	4g	4b-
.	.	.	4a	4cc
.	.	.	[2b-	4dd
.	.	.	.	4b-
=5	=5	=5	=5	=5
0r	1F	0r	2b-]	1cc
.	.	.	2a	.
.	1B-	.	4b-	4dd
.	.	.	4a	4cc
.	.	.	4g	4b-
.	.	.	4f	4a
=6	=6	=6	=6	=6
0r	2.c	0r	4e-	1g
.	.	.	4f	.
.	.	.	1g	.
.	4B-	.	.	.
.	2c	.	.	1a
.	2d	.	2f#	.
=7	=7	=7	=7	=7
0r	2e-	1G	2g	4g
.	.	.	.	4a
.	2.d	.	4G	4b-
.	.	.	4A	4cc
.	.	1G	4B-	1dd
.	4c	.	4c	.
.	[2B-	.	4d	.
.	.	.	4B-	.
=8	=8	=8	=8	=8
1r	2B-]	1F	1c	2.ff
.	2A	.	.	.
.	.	.	.	4ee-
1G	2B-	2.B-	1d	4dd
.	.	.	.	4cc
.	2G	.	.	[2dd
.	.	4A	.	.
=9	=9	=9	=9	=9
1G	2.d	4B-	0r	4dd]
.	.	4c	.	4cc
.	.	4d	.	1b-
.	4e	4B-	.	.
1F	[1f	1c	.	.
.	.	.	.	2a
=10	=10	=10	=10	=10
1.B-	1f]	4B-	1d	1.dd
.	.	4c	.	.
.	.	4d	.	.
.	.	4e	.	.
.	1r	4f	1d	.
.	.	4d	.	.
4A	.	[2g	.	4cc
4G	.	.	.	4b-
=11	=11	=11	=11	=11
1A	1r	2g]	1c	1cc
.	.	2f#	.	.
1G	1d	2g	2r	1b-
.	.	2G	2g	.
=12	=12	=12	=12	=12
2.D	1d	2A	2f	2a
.	.	2B-	2d	1ff
4E	.	.	.	.
4F	1c	[1A	[1a	.
4G	.	.	.	.
2A	.	.	.	2ee
=13	=13	=13	=13	=13
1.D	1.f	1A]	1a]	2.dd
.	.	.	.	8cc
.	.	.	.	8b-
.	.	1A	2.f	2.a
4C	4e	.	.	.
4BB	4d	.	4g	4b
=14	=14	=14	=14	=14
0AA	2e	0A	0a	2cc#
.	2f	.	.	1dd
.	1e	.	.	.
.	.	.	.	2cc#
=15	=15	=15	=15	=15
1D	1d	2r	2f#	2dd
.	.	1d	1f#	1a
1r	1r	.	.	.
.	.	2g	2g	2b-
=16	=16	=16	=16	=16
0r	0r	2f	2a	2cc
.	.	1B-	1b-	1dd
.	.	2F	2a	2cc
=17	=17	=17	=17	=17
0r	2r	2.G	1g	4b-
.	.	.	.	4a
.	1d	.	.	4b-
.	.	4A	.	4cc
.	.	2B-	2f	2dd
.	2e	2c	[2a	4cc
.	.	.	.	4b-
=18	=18	=18	=18	=18
0r	2f	2d	2a]	2a
.	1g	2B-	4g	2b-
.	.	.	4f	.
.	.	2c	2e	[1a
.	2f	2d	[2d	.
=19	=19	=19	=19	=19
1r	2e	1A	2d]	1a]
.	2e	.	2c#	.
2r	2f#	2r	1d	1r
[2G	[2g	[2d	.	.
=20	=20	=20	=20	=20
2G]	2g]	2d]	1r	0r
2A	2f#	2c	.	.
2B-	1g	2d	2r	.
[2c	.	[2e	2g	.
=21	=21	=21	=21	=21
2c]	2c	4e]	2a	0r
.	.	4f#	.	.
2B-	2d	2g	2b-	.
2A	2e	1c	[1cc	.
2A	2f#	.	.	.
=22	=22	=22	=22	=22
1G	1g	2r	2cc]	2r
.	.	1d	2b-	1dd
1r	2f	.	2a	.
.	2e	2e	2g	2cc
=23	=23	=23	=23	=23
0r	2d	2f	2a	2dd
.	2c	1g	1b-	2.ee-
.	1d	.	.	.
.	.	.	.	4dd
.	.	2f	[2a	2dd
=24	=24	=24	=24	=24
1r	1r	2e-	4a]	1g
.	.	.	4g	.
.	.	2e-	1g	.
2r	2r	2d	.	2.a
[2D	[2d	[2A	4f	.
.	.	.	4e	4g
=25	=25	=25	=25	=25
2D]	2d]	2A]	2f	4a
.	.	.	.	4b-
2E	2c	2G	2e	2cc
2F	2d	2A	2d	2a
[2G	2e-	[2B-	2b-	2g
=26	=26	=26	=26	=26
2G]	1d	2B-]	2g	1dd
2F	.	2A	2.a	.
2E-	2G	2B-	.	1r
.	.	.	4g	.
2E-	2G	2c	[2g	.
=27	=27	=27	=27	=27
0D	2B-	[0d	2g]	1dd
.	4A	.	4f#	.
.	4G	.	4e	.
.	1A	.	2f#	1dd
.	.	.	2f#	.
=28	=28	=28	=28	=28
1G	1G	0d]	1g	1b
2r	2r	.	2r	2r
2G	2g	.	2b	2dd
=29	=29	=29	=29	=29
2c	2g	0r	2cc	2ee
2A	2c	.	2cc	2ff#
1G	1d	.	1b-	1gg
=30	=30	=30	=30	=30
0D	4d	0r	4a	2ff
.	4e	.	4g	.
.	4f	.	4f	2dd
.	4g	.	4e	.
.	1a	.	2d	4ff
.	.	.	.	4ee
.	.	.	2f	4dd
.	.	.	.	4cc
=31	=31	=31	=31	=31
0r	0r	2r	4g	4b-
.	.	.	4a	4cc
.	.	2d	1b-	4dd
.	.	.	.	4b-
.	.	2e	.	1cc
.	.	2f	2a	.
=32	=32	=32	=32	=32
2r	0r	1g	1b-	4b-
.	.	.	.	4cc
2G	.	.	.	4dd
.	.	.	.	4b-
2A	.	2f	1r	2cc
2B-	.	2d	.	2dd
=33	=33	=33	=33	=33
1c	1r	2.e	2r	1g
.	.	.	2g	.
.	.	8d	.	.
.	.	8e	.	.
2F	2r	2f	2a	1r
2G	2g	4e	2b-	.
.	.	4d	.	.
=34	=34	=34	=34	=34
1A	2e	1c	1cc	0r
.	2f#	.	.	.
1G	2g	4d	2b-	.
.	.	4c	.	.
.	2d	4B-	2g	.
.	.	4A	.	.
=35	=35	=35	=35	=35
2r	4g	1G	4b-	2r
.	4f	.	4a	.
2G	4e	.	4g	2b-
.	4d	.	4f	.
2A	2c	1r	2e	2a
2B-	[2d	.	2d	2g
=36	=36	=36	=36	=36
1A	2d]	1r	1e	1a
.	2c#	.	.	.
2r	2d	2r	2f#	2r
[2D	[2A	[2d	[2f#	[2a
=37	=37	=37	=37	=37
2D]	2A]	2d]	2f#]	2a]
2D	2d	2d	2f#	2b-
1C	2G	1e-	1g	1cc
.	[2G	.	.	.
=38	=38	=38	=38	=38
1.G	4G]	2.d	2.g	2.b-
.	4A	.	.	.
.	1B-	.	.	.
.	.	4c	8f	4a
.	.	.	8e	.
.	.	4d	2.d	4b-
.	.	4e	.	4cc
4F	4A	[2f	.	[2dd
4E	4G	.	4e	.
=39	=39	=39	=39	=39
2.D	2F	4f]	0f	4dd]
.	.	4e	.	4cc
.	2.f	2d	.	1b-
4E	.	.	.	.
1F	.	1c	.	.
.	4e-	.	.	.
.	2c	.	.	2a
=40	=40	=40	=40	=40
0BB-	2.d	1B-	1f	1b-
.	4e	.	.	.
.	1f	1B-	1b-	1dd
=41	=41	=41	=41	=41
0r	0r	1f	1a	1cc
.	.	1g	2g	2b-
.	.	.	[2b-	4g
.	.	.	.	4a
=42	=42	=42	=42	=42
0r	0r	2g	2b-]	4b-
.	.	.	.	4cc
.	.	4f	4a	4dd
.	.	4e	4g	4ee
.	.	2d	2a	2ff#
.	.	2G	2b-	[2gg
=43	=43	=43	=43	=43
1r	1r	1d	1a	2gg]
.	.	.	.	2ff#
1G	[1d	2G	2g	2gg
.	.	2g	2b-	[2dd
=44	=44	=44	=44	=44
1B-	1d]	1f	1b-	2dd]
.	.	.	.	1ff
1F	1c	1f	1a	.
.	.	.	.	2f
=45	=45	=45	=45	=45
1.G	2B-	0d	2g	2.b-
.	1B-	.	4G	.
.	.	.	4A	4cc
.	.	.	4B-	[1dd
.	.	.	4c	.
4F	4A	.	4d	.
4E	4G	.	4e	.
=46	=46	=46	=46	=46
2D	2A	1d	2f#	2dd]
2G	2B-	.	1g	2dd
1D	1A	1d	.	1dd
.	.	.	2f#	.
=47	=47	=47	=47	=47
0G	0G	0d	0g	0b
==	==	==	==	==
*-	*-	*-	*-	*-
!!!CDT: 1525/^1526/-1594/2/2
!!!OCY: Italia
!!!AGN: Mass (Parody)
!!!AST: renaissance, vocal
!!!ASW: Motet (Palestrina)
!!!PWK: Masses, Book 7
!!!RNB: Cadence finals: D
!!!YOR: Le Opere Complete, v. 23, p. 115
!!!YOO: Rome, Italy: Fratelli Scalera
!!!END: 1992//
!!!EED: John Miller
!!!YEC: Copyright 2000, John Miller
!!!YEN: United States of America
!!!YEM: Rights to all derivative electronic formats reserved.
!!!YEM: Refer to licensing agreement for further details.
!!!YEM: This file must be accompanied by the licensing agreement.
!!!YEM: A copy of the licensing agreement may be found at http://www.music-cog.ohio-state.edu/HumdrumDatabases/Palestrina/license.txt
!!!EMD: converted to Humdrum by Bret Aarden
